images/16758928.svg

<?xml version="1.0" encoding="UTF-8"?>
<svg xmlns="http://www.w3.org/2000/svg" xmlns:xlink="http://www.w3.org/1999/xlink" width="300pt" height="300pt" viewBox="0 0 300 300" version="1.1">
<defs>
<g>
<symbol overflow="visible" id="glyph0-0">
<path style="stroke:none;" d="M 0.546875 1.9375 L 0.546875 -7.75 L 6.046875 -7.75 L 6.046875 1.9375 Z M 1.171875 1.328125 L 5.4375 1.328125 L 5.4375 -7.140625 L 1.171875 -7.140625 Z M 1.171875 1.328125 "/>
</symbol>
<symbol overflow="visible" id="glyph0-1">
<path style="stroke:none;" d="M 4.328125 -7.28125 C 3.546875 -7.28125 2.921875 -6.984375 2.453125 -6.390625 C 1.992188 -5.804688 1.765625 -5.007812 1.765625 -4 C 1.765625 -2.988281 1.992188 -2.1875 2.453125 -1.59375 C 2.921875 -1.007812 3.546875 -0.71875 4.328125 -0.71875 C 5.117188 -0.71875 5.742188 -1.007812 6.203125 -1.59375 C 6.660156 -2.1875 6.890625 -2.988281 6.890625 -4 C 6.890625 -5.007812 6.660156 -5.804688 6.203125 -6.390625 C 5.742188 -6.984375 5.117188 -7.28125 4.328125 -7.28125 Z M 4.328125 -8.171875 C 5.453125 -8.171875 6.351562 -7.789062 7.03125 -7.03125 C 7.707031 -6.28125 8.046875 -5.269531 8.046875 -4 C 8.046875 -2.738281 7.707031 -1.726562 7.03125 -0.96875 C 6.351562 -0.21875 5.453125 0.15625 4.328125 0.15625 C 3.203125 0.15625 2.300781 -0.21875 1.625 -0.96875 C 0.957031 -1.71875 0.625 -2.726562 0.625 -4 C 0.625 -5.269531 0.957031 -6.28125 1.625 -7.03125 C 2.300781 -7.789062 3.203125 -8.171875 4.328125 -8.171875 Z M 4.328125 -8.171875 "/>
</symbol>
</g>
</defs>
<g id="surface44749">
<rect x="0" y="0" width="300" height="300" style="fill:rgb(100%,100%,100%);fill-opacity:1;stroke:none;"/>
<path style="fill:none;stroke-width:1.2;stroke-linecap:butt;stroke-linejoin:miter;stroke:rgb(0%,0%,0%);stroke-opacity:1;stroke-miterlimit:10;" d="M 85.847656 229.945312 L 77.414062 205.730469 "/>
<path style="fill:none;stroke-width:1.2;stroke-linecap:butt;stroke-linejoin:miter;stroke:rgb(0%,0%,0%);stroke-opacity:1;stroke-miterlimit:10;" d="M 77.980469 202.769531 L 65.386719 200.367188 "/>
<path style="fill:none;stroke-width:1.2;stroke-linecap:butt;stroke-linejoin:miter;stroke:rgb(100%,0%,0%);stroke-opacity:1;stroke-miterlimit:10;" d="M 65.386719 200.367188 L 52.792969 197.964844 "/>
<path style="fill:none;stroke-width:1.2;stroke-linecap:butt;stroke-linejoin:miter;stroke:rgb(0%,0%,0%);stroke-opacity:1;stroke-miterlimit:10;" d="M 76.847656 208.695312 L 64.257812 206.292969 "/>
<path style="fill:none;stroke-width:1.2;stroke-linecap:butt;stroke-linejoin:miter;stroke:rgb(100%,0%,0%);stroke-opacity:1;stroke-miterlimit:10;" d="M 64.257812 206.292969 L 51.664062 203.890625 "/>
<path style="fill:none;stroke-width:1.2;stroke-linecap:butt;stroke-linejoin:miter;stroke:rgb(0%,0%,0%);stroke-opacity:1;stroke-miterlimit:10;" d="M 77.414062 205.730469 L 85.792969 196.027344 "/>
<path style="fill:none;stroke-width:1.2;stroke-linecap:butt;stroke-linejoin:miter;stroke:rgb(100%,0%,0%);stroke-opacity:1;stroke-miterlimit:10;" d="M 85.792969 196.027344 L 94.167969 186.320312 "/>
<path style=" stroke:none;fill-rule:nonzero;fill:rgb(100%,100%,100%);fill-opacity:1;" d="M 43.226562 194.425781 L 52.226562 194.425781 L 52.226562 207.425781 L 43.226562 207.425781 Z M 43.226562 194.425781 "/>
<g style="fill:rgb(100%,0%,0%);fill-opacity:1;">
  <use xlink:href="#glyph0-1" x="43.226562" y="204.327148"/>
</g>
<path style="fill:none;stroke-width:1.2;stroke-linecap:butt;stroke-linejoin:miter;stroke:rgb(100%,0%,0%);stroke-opacity:1;stroke-miterlimit:10;" d="M 94.167969 186.320312 L 89.953125 174.214844 "/>
<path style="fill:none;stroke-width:1.2;stroke-linecap:butt;stroke-linejoin:miter;stroke:rgb(0%,0%,0%);stroke-opacity:1;stroke-miterlimit:10;" d="M 89.953125 174.214844 L 85.734375 162.105469 "/>
<path style=" stroke:none;fill-rule:nonzero;fill:rgb(100%,100%,100%);fill-opacity:1;" d="M 90.167969 179.820312 L 99.167969 179.820312 L 99.167969 192.820312 L 90.167969 192.820312 Z M 90.167969 179.820312 "/>
<g style="fill:rgb(100%,0%,0%);fill-opacity:1;">
  <use xlink:href="#glyph0-1" x="90.167969" y="189.72168"/>
</g>
<path style="fill:none;stroke-width:1.2;stroke-linecap:butt;stroke-linejoin:miter;stroke:rgb(0%,0%,0%);stroke-opacity:1;stroke-miterlimit:10;" d="M 85.734375 162.105469 L 102.488281 142.695312 "/>
<path style="fill:none;stroke-width:1.2;stroke-linecap:butt;stroke-linejoin:miter;stroke:rgb(0%,0%,0%);stroke-opacity:1;stroke-miterlimit:10;" d="M 102.488281 142.695312 L 94.054688 118.484375 "/>
<path style="fill:none;stroke-width:1.2;stroke-linecap:butt;stroke-linejoin:miter;stroke:rgb(100%,0%,0%);stroke-opacity:1;stroke-miterlimit:10;" d="M 127.675781 147.5 L 115.082031 145.097656 "/>
<path style="fill:none;stroke-width:1.2;stroke-linecap:butt;stroke-linejoin:miter;stroke:rgb(0%,0%,0%);stroke-opacity:1;stroke-miterlimit:10;" d="M 115.082031 145.097656 L 102.488281 142.695312 "/>
<path style="fill:none;stroke-width:1.2;stroke-linecap:butt;stroke-linejoin:miter;stroke:rgb(0%,0%,0%);stroke-opacity:1;stroke-miterlimit:10;" d="M 94.054688 118.484375 L 110.808594 99.074219 "/>
<path style="fill:none;stroke-width:1.2;stroke-linecap:butt;stroke-linejoin:miter;stroke:rgb(0%,0%,0%);stroke-opacity:1;stroke-miterlimit:10;" d="M 94.054688 118.484375 L 81.460938 116.082031 "/>
<path style="fill:none;stroke-width:1.2;stroke-linecap:butt;stroke-linejoin:miter;stroke:rgb(100%,0%,0%);stroke-opacity:1;stroke-miterlimit:10;" d="M 81.460938 116.082031 L 68.871094 113.679688 "/>
<path style="fill:none;stroke-width:1.2;stroke-linecap:butt;stroke-linejoin:miter;stroke:rgb(0%,0%,0%);stroke-opacity:1;stroke-miterlimit:10;" d="M 110.808594 99.074219 L 135.996094 103.875 "/>
<path style="fill:none;stroke-width:1.2;stroke-linecap:butt;stroke-linejoin:miter;stroke:rgb(0%,0%,0%);stroke-opacity:1;stroke-miterlimit:10;" d="M 112.195312 105.480469 L 132.347656 109.324219 "/>
<path style="fill:none;stroke-width:1.2;stroke-linecap:butt;stroke-linejoin:miter;stroke:rgb(0%,0%,0%);stroke-opacity:1;stroke-miterlimit:10;" d="M 135.996094 103.875 L 144.429688 128.089844 "/>
<path style="fill:none;stroke-width:1.2;stroke-linecap:butt;stroke-linejoin:miter;stroke:rgb(0%,0%,0%);stroke-opacity:1;stroke-miterlimit:10;" d="M 144.429688 128.089844 L 136.050781 137.796875 "/>
<path style="fill:none;stroke-width:1.2;stroke-linecap:butt;stroke-linejoin:miter;stroke:rgb(100%,0%,0%);stroke-opacity:1;stroke-miterlimit:10;" d="M 136.050781 137.796875 L 127.675781 147.5 "/>
<path style="fill:none;stroke-width:1.2;stroke-linecap:butt;stroke-linejoin:miter;stroke:rgb(0%,0%,0%);stroke-opacity:1;stroke-miterlimit:10;" d="M 144.429688 128.089844 L 169.613281 132.894531 "/>
<path style=" stroke:none;fill-rule:nonzero;fill:rgb(100%,100%,100%);fill-opacity:1;" d="M 123.675781 141 L 132.675781 141 L 132.675781 154 L 123.675781 154 Z M 123.675781 141 "/>
<g style="fill:rgb(100%,0%,0%);fill-opacity:1;">
  <use xlink:href="#glyph0-1" x="123.675781" y="150.901367"/>
</g>
<path style="fill:none;stroke-width:1.2;stroke-linecap:butt;stroke-linejoin:miter;stroke:rgb(0%,0%,0%);stroke-opacity:1;stroke-miterlimit:10;" d="M 169.613281 132.894531 L 194.800781 137.699219 "/>
<path style="fill:none;stroke-width:1.2;stroke-linecap:butt;stroke-linejoin:miter;stroke:rgb(0%,0%,0%);stroke-opacity:1;stroke-miterlimit:10;" d="M 171.003906 139.300781 L 191.152344 143.144531 "/>
<path style="fill:none;stroke-width:1.2;stroke-linecap:butt;stroke-linejoin:miter;stroke:rgb(0%,0%,0%);stroke-opacity:1;stroke-miterlimit:10;" d="M 173.261719 127.449219 L 193.414062 131.292969 "/>
<path style="fill:none;stroke-width:1.2;stroke-linecap:butt;stroke-linejoin:miter;stroke:rgb(0%,0%,0%);stroke-opacity:1;stroke-miterlimit:10;" d="M 194.800781 137.699219 L 219.988281 142.503906 "/>
<path style="fill:none;stroke-width:1.2;stroke-linecap:butt;stroke-linejoin:miter;stroke:rgb(0%,0%,0%);stroke-opacity:1;stroke-miterlimit:10;" d="M 219.988281 142.503906 L 220.34375 116.863281 "/>
<path style="fill:none;stroke-width:1.2;stroke-linecap:butt;stroke-linejoin:miter;stroke:rgb(0%,0%,0%);stroke-opacity:1;stroke-miterlimit:10;" d="M 219.988281 142.503906 L 215.433594 154.488281 "/>
<path style="fill:none;stroke-width:1.2;stroke-linecap:butt;stroke-linejoin:miter;stroke:rgb(100%,0%,0%);stroke-opacity:1;stroke-miterlimit:10;" d="M 215.433594 154.488281 L 210.882812 166.472656 "/>
<path style="fill:none;stroke-width:1.2;stroke-linecap:butt;stroke-linejoin:miter;stroke:rgb(0%,0%,0%);stroke-opacity:1;stroke-miterlimit:10;" d="M 242.011719 155.628906 L 219.988281 142.503906 "/>
<path style="fill:none;stroke-width:1.2;stroke-linecap:butt;stroke-linejoin:miter;stroke:rgb(0%,0%,0%);stroke-opacity:1;stroke-miterlimit:10;" d="M 220.34375 116.863281 L 242.726562 104.355469 "/>
<path style="fill:none;stroke-width:1.2;stroke-linecap:butt;stroke-linejoin:miter;stroke:rgb(0%,0%,0%);stroke-opacity:1;stroke-miterlimit:10;" d="M 242.726562 104.355469 L 264.75 117.484375 "/>
<path style="fill:none;stroke-width:1.2;stroke-linecap:butt;stroke-linejoin:miter;stroke:rgb(0%,0%,0%);stroke-opacity:1;stroke-miterlimit:10;" d="M 264.75 117.484375 L 264.394531 143.121094 "/>
<path style="fill:none;stroke-width:1.2;stroke-linecap:butt;stroke-linejoin:miter;stroke:rgb(0%,0%,0%);stroke-opacity:1;stroke-miterlimit:10;" d="M 264.394531 143.121094 L 242.011719 155.628906 "/>
<path style="fill:none;stroke-width:1.2;stroke-linecap:butt;stroke-linejoin:miter;stroke:rgb(100%,0%,0%);stroke-opacity:1;stroke-miterlimit:10;" d="M 210.882812 166.472656 L 218.984375 176.40625 "/>
<path style="fill:none;stroke-width:1.2;stroke-linecap:butt;stroke-linejoin:miter;stroke:rgb(0%,0%,0%);stroke-opacity:1;stroke-miterlimit:10;" d="M 218.984375 176.40625 L 227.089844 186.339844 "/>
<path style=" stroke:none;fill-rule:nonzero;fill:rgb(100%,100%,100%);fill-opacity:1;" d="M 206.882812 159.972656 L 215.882812 159.972656 L 215.882812 172.972656 L 206.882812 172.972656 Z M 206.882812 159.972656 "/>
<g style="fill:rgb(100%,0%,0%);fill-opacity:1;">
  <use xlink:href="#glyph0-1" x="206.882812" y="169.874023"/>
</g>
<path style="fill:none;stroke-width:1.2;stroke-linecap:butt;stroke-linejoin:miter;stroke:rgb(100%,0%,0%);stroke-opacity:1;stroke-miterlimit:10;" d="M 68.871094 113.679688 L 64.652344 101.574219 "/>
<path style="fill:none;stroke-width:1.2;stroke-linecap:butt;stroke-linejoin:miter;stroke:rgb(0%,0%,0%);stroke-opacity:1;stroke-miterlimit:10;" d="M 64.652344 101.574219 L 60.4375 89.464844 "/>
<path style=" stroke:none;fill-rule:nonzero;fill:rgb(100%,100%,100%);fill-opacity:1;" d="M 64.871094 107.179688 L 73.871094 107.179688 L 73.871094 120.179688 L 64.871094 120.179688 Z M 64.871094 107.179688 "/>
<g style="fill:rgb(100%,0%,0%);fill-opacity:1;">
  <use xlink:href="#glyph0-1" x="64.871094" y="117.081055"/>
</g>
<path style="fill:none;stroke-width:1.2;stroke-linecap:butt;stroke-linejoin:miter;stroke:rgb(0%,0%,0%);stroke-opacity:1;stroke-miterlimit:10;" d="M 62.71875 91.4375 L 71.097656 81.730469 "/>
<path style="fill:none;stroke-width:1.2;stroke-linecap:butt;stroke-linejoin:miter;stroke:rgb(100%,0%,0%);stroke-opacity:1;stroke-miterlimit:10;" d="M 71.097656 81.730469 L 79.472656 72.027344 "/>
<path style="fill:none;stroke-width:1.2;stroke-linecap:butt;stroke-linejoin:miter;stroke:rgb(0%,0%,0%);stroke-opacity:1;stroke-miterlimit:10;" d="M 58.152344 87.496094 L 66.53125 77.789062 "/>
<path style="fill:none;stroke-width:1.2;stroke-linecap:butt;stroke-linejoin:miter;stroke:rgb(100%,0%,0%);stroke-opacity:1;stroke-miterlimit:10;" d="M 66.53125 77.789062 L 74.90625 68.085938 "/>
<path style="fill:none;stroke-width:1.2;stroke-linecap:butt;stroke-linejoin:miter;stroke:rgb(0%,0%,0%);stroke-opacity:1;stroke-miterlimit:10;" d="M 60.4375 89.464844 L 35.25 84.660156 "/>
<path style=" stroke:none;fill-rule:nonzero;fill:rgb(100%,100%,100%);fill-opacity:1;" d="M 73.191406 63.554688 L 82.191406 63.554688 L 82.191406 76.554688 L 73.191406 76.554688 Z M 73.191406 63.554688 "/>
<g style="fill:rgb(100%,0%,0%);fill-opacity:1;">
  <use xlink:href="#glyph0-1" x="73.191406" y="73.456055"/>
</g>
</g>
</svg>

<svg xmlns="http://www.w3.org/2000/svg" xmlns:xlink="http://www.w3.org/1999/xlink" width="300pt" height="300pt" viewBox="0 0 300 300"><defs><symbol overflow="visible"><path d="M.547 1.938V-7.75h5.5v9.688zm.625-.61h4.266v-8.47H1.171zm0 0"/></symbol><symbol overflow="visible" id="a"><path d="M4.328-7.28c-.78 0-1.406.296-1.875.89-.46.585-.687 1.382-.687 2.39 0 1.012.226 1.813.687 2.406.47.586 1.094.875 1.875.875.79 0 1.414-.288 1.875-.874.457-.593.688-1.394.688-2.406 0-1.008-.23-1.805-.687-2.39-.46-.594-1.086-.89-1.875-.89zm0-.892c1.125 0 2.024.383 2.703 1.14C7.708-6.28 8.048-5.27 8.048-4c0 1.262-.34 2.273-1.016 3.03C6.353-.22 5.454.157 4.33.157S2.3-.22 1.625-.97c-.668-.75-1-1.757-1-3.03 0-1.27.332-2.28 1-3.03.676-.76 1.578-1.142 2.703-1.142zm0 0"/></symbol></defs><g><path fill="#fff" d="M0 0h300v300H0z"/><path d="M85.848 229.945l-8.434-24.215M77.98 202.77l-12.593-2.403" stroke-width="1.2" stroke="#000" stroke-miterlimit="10" fill="none"/><path d="M65.387 200.367l-12.594-2.402" stroke-width="1.2" stroke="#f00" stroke-miterlimit="10" fill="none"/><path d="M76.848 208.695l-12.59-2.402" stroke-width="1.2" stroke="#000" stroke-miterlimit="10" fill="none"/><path d="M64.258 206.293l-12.594-2.402" stroke-width="1.2" stroke="#f00" stroke-miterlimit="10" fill="none"/><path d="M77.414 205.73l8.38-9.703" stroke-width="1.2" stroke="#000" stroke-miterlimit="10" fill="none"/><path d="M85.793 196.027l8.375-9.707" stroke-width="1.2" stroke="#f00" stroke-miterlimit="10" fill="none"/><path d="M43.227 194.426h9v13h-9zm0 0" fill="#fff"/><use xlink:href="#a" x="43.227" y="204.327" fill="#f00"/><path d="M94.168 186.32l-4.215-12.105" stroke-width="1.2" stroke="#f00" stroke-miterlimit="10" fill="none"/><path d="M89.953 174.215l-4.22-12.11" stroke-width="1.2" stroke="#000" stroke-miterlimit="10" fill="none"/><path d="M90.168 179.82h9v13h-9zm0 0" fill="#fff"/><use xlink:href="#a" x="90.168" y="189.722" fill="#f00"/><path d="M85.734 162.105l16.754-19.41M102.488 142.695l-8.433-24.21" stroke-width="1.2" stroke="#000" stroke-miterlimit="10" fill="none"/><path d="M127.676 147.5l-12.594-2.402" stroke-width="1.2" stroke="#f00" stroke-miterlimit="10" fill="none"/><path d="M115.082 145.098l-12.594-2.403M94.055 118.484l16.754-19.41M94.055 118.484l-12.594-2.402" stroke-width="1.2" stroke="#000" stroke-miterlimit="10" fill="none"/><path d="M81.46 116.082l-12.59-2.402" stroke-width="1.2" stroke="#f00" stroke-miterlimit="10" fill="none"/><path d="M110.81 99.074l25.186 4.8M112.195 105.48l20.153 3.844M135.996 103.875l8.434 24.215M144.43 128.09l-8.38 9.707" stroke-width="1.2" stroke="#000" stroke-miterlimit="10" fill="none"/><path d="M136.05 137.797l-8.374 9.703" stroke-width="1.2" stroke="#f00" stroke-miterlimit="10" fill="none"/><path d="M144.43 128.09l25.183 4.805" stroke-width="1.2" stroke="#000" stroke-miterlimit="10" fill="none"/><path d="M123.676 141h9v13h-9zm0 0" fill="#fff"/><use xlink:href="#a" x="123.676" y="150.901" fill="#f00"/><path d="M169.613 132.895L194.8 137.7M171.004 139.3l20.148 3.845M173.262 127.45l20.152 3.843M194.8 137.7l25.188 4.804M219.988 142.504l.356-25.64M219.988 142.504l-4.554 11.984" stroke-width="1.2" stroke="#000" stroke-miterlimit="10" fill="none"/><path d="M215.434 154.488l-4.55 11.985" stroke-width="1.2" stroke="#f00" stroke-miterlimit="10" fill="none"/><path d="M242.012 155.63l-22.024-13.126M220.344 116.863l22.383-12.508M242.727 104.355l22.023 13.13M264.75 117.484l-.355 25.637M264.395 143.12l-22.383 12.51" stroke-width="1.2" stroke="#000" stroke-miterlimit="10" fill="none"/><path d="M210.883 166.473l8.1 9.933" stroke-width="1.2" stroke="#f00" stroke-miterlimit="10" fill="none"/><path d="M218.984 176.406l8.106 9.934" stroke-width="1.2" stroke="#000" stroke-miterlimit="10" fill="none"/><path d="M206.883 159.973h9v13h-9zm0 0" fill="#fff"/><use xlink:href="#a" x="206.883" y="169.874" fill="#f00"/><path d="M68.87 113.68l-4.218-12.106" stroke-width="1.2" stroke="#f00" stroke-miterlimit="10" fill="none"/><path d="M64.652 101.574l-4.215-12.11" stroke-width="1.2" stroke="#000" stroke-miterlimit="10" fill="none"/><path d="M64.87 107.18h9v13h-9zm0 0" fill="#fff"/><use xlink:href="#a" x="64.871" y="117.081" fill="#f00"/><path d="M62.72 91.438l8.378-9.708" stroke-width="1.2" stroke="#000" stroke-miterlimit="10" fill="none"/><path d="M71.098 81.73l8.375-9.703" stroke-width="1.2" stroke="#f00" stroke-miterlimit="10" fill="none"/><path d="M58.152 87.496l8.38-9.707" stroke-width="1.2" stroke="#000" stroke-miterlimit="10" fill="none"/><path d="M66.53 77.79l8.376-9.704" stroke-width="1.2" stroke="#f00" stroke-miterlimit="10" fill="none"/><path d="M60.438 89.465L35.25 84.66" stroke-width="1.2" stroke="#000" stroke-miterlimit="10" fill="none"/><path d="M73.19 63.555h9v13h-9zm0 0" fill="#fff"/><use xlink:href="#a" x="73.191" y="73.456" fill="#f00"/></g></svg>
